X: 11
T: Ding Dong Merrily on High v.2
P: piffero primo c0012
O: French
%R: march
F: http://ancients.sudburymuster.org/mus/col/pdf/carolsF.pdf
Z: 2020 John Chambers <jc:trillian.mit.edu>
M: 4/4
L: 1/8
K: G
% - - - - - - - - - -
[|\
(B4 A4) | (B4 c4) | (B4 A4) | (B4 c4) ||\
d4 c4 | B2A2 B4 | c4 c4 | B2c2 d4 |\
d4 c4 | B2A2 B4 |
                  c4 c4 | B2c2 d4 ||\
B2A2 G4 | A2G2 F4 | G2F2 E4 | F2E2 D4 |\
E2D2 ^C4 | D2E2 F4 | c4 c4 | B2A2 B4 |]
%% - - - - - - - - - -


